Newaita-dark/devices/24/media-memory-sm.svg

<svg height="24pt" viewBox="0 0 24 24" width="24pt" xmlns="http://www.w3.org/2000/svg" xmlns:xlink="http://www.w3.org/1999/xlink"><linearGradient id="a"><stop offset="0" stop-opacity=".27451"/><stop offset="1" stop-opacity="0"/></linearGradient><linearGradient id="b" gradientUnits="userSpaceOnUse" x1="11.907391" x2="11.907391" xlink:href="#a" y1="20.98665325" y2="21.97893615627"/><linearGradient id="c"><stop offset="0" stop-opacity=".313725"/><stop offset=".222222" stop-opacity=".27451"/><stop offset="1" stop-opacity="0"/></linearGradient><radialGradient id="d" cx="450.90894" cy="189.57936" gradientTransform="matrix(.00000013 -.0585994 -.105479 -.00000008 37.857633 47.657703)" gradientUnits="userSpaceOnUse" r="21.166656" xlink:href="#c"/><radialGradient id="e" cx="450.90894" cy="189.57936" gradientTransform="matrix(-.00000013 .0585994 .105479 .00000008 -14.042859 -5.684407)" gradientUnits="userSpaceOnUse" r="21.166656" xlink:href="#c"/><radialGradient id="f" cx="450.90894" cy="189.57936" gradientTransform="matrix(-.00000013 -.0585994 .105479 -.00000008 -14.042859 47.657703)" gradientUnits="userSpaceOnUse" r="21.166656" xlink:href="#c"/><radialGradient id="g" cx="450.90894" cy="189.57936" gradientTransform="matrix(.00000013 .0585994 -.105479 .00000008 37.857631 -5.684407)" gradientUnits="userSpaceOnUse" r="21.166656" xlink:href="#c"/><linearGradient id="h" gradientUnits="userSpaceOnUse" x1="11.907393" x2="11.907393" y1="23.01001606253" y2=".1875125"><stop offset="0" stop-color="#424242"/><stop offset="1" stop-color="#616161"/></linearGradient><linearGradient id="i" gradientUnits="userSpaceOnUse" x1="11.907393" x2="11.907393" y1="21.02545025" y2="14.57561224999"><stop offset="0" stop-color="#bdbdbd"/><stop offset="1" stop-color="#e0e0e0"/></linearGradient><linearGradient id="j" gradientUnits="userSpaceOnUse" x1="11.907393" x2="11.907393" y1="21.02545025" y2="2.17207784373"><stop offset="0" stop-color="#ffca28"/><stop offset="1" stop-color="#ffd54f"/></linearGradient><linearGradient id="k" gradientUnits="userSpaceOnUse" x1="11.907395375" x2="11.907395375" xlink:href="#a" y1="12.0949055" y2="4.15664318747"/><linearGradient id="l" gradientUnits="userSpaceOnUse" x1="13.147748375" x2="13.147748375" xlink:href="#a" y1="12.0949055" y2="4.15664318747"/><linearGradient id="m" gradientUnits="userSpaceOnUse" x1="14.388101375" x2="14.388101375" xlink:href="#a" y1="12.0949055" y2="4.15664318747"/><linearGradient id="n" gradientUnits="userSpaceOnUse" x1="15.628453375" x2="15.628453375" xlink:href="#a" y1="12.0949055" y2="4.15664318747"/><linearGradient id="o" gradientUnits="userSpaceOnUse" x1="16.868806375" x2="16.868806375" xlink:href="#a" y1="12.0949055" y2="4.15664318747"/><linearGradient id="p" gradientUnits="userSpaceOnUse" x1="10.667042375" x2="10.667042375" xlink:href="#a" y1="12.0949055" y2="4.15664318747"/><linearGradient id="q" gradientUnits="userSpaceOnUse" x1="9.426689375" x2="9.426689375" xlink:href="#a" y1="12.0949055" y2="4.15664318747"/><linearGradient id="r" gradientUnits="userSpaceOnUse" x1="8.186336375" x2="8.186336375" xlink:href="#a" y1="12.0949055" y2="4.15664318747"/><linearGradient id="s" gradientUnits="userSpaceOnUse" x1="6.945983375" x2="6.945983375" xlink:href="#a" y1="12.0949055" y2="4.15664318747"/><linearGradient id="t" gradientUnits="userSpaceOnUse" x1="11.907393" x2="11.907393" y1="21.02545025" y2="14.57561224999"><stop offset="0" stop-color="#ff7043"/><stop offset="1" stop-color="#ff8a65"/></linearGradient><path d="m5.707031 21.003906h12.402344v1.015625h-12.402344zm0 0" fill="url(#b)"/><path d="m18.109375 20.988281h1.984375v-.992187h-1.984375zm0 0" fill="url(#d)"/><path d="m5.707031 20.988281h-1.984375v.992188h1.984375zm0 0" fill="url(#e)"/><path d="m5.707031 20.988281h-1.984375v-.992187h1.984375zm0 0" fill="url(#f)"/><path d="m18.109375 20.988281h1.984375v.992188h-1.984375zm0 0" fill="url(#g)"/><path d="m8.929688 2.175781c-.261719 0-.511719.105469-.699219.289063l-3.96875 3.96875c-.183594.1875-.289063.4375-.289063.699218v12.898438c0 .546875.445313.988281.988282.988281h13.890624c.546876 0 .988282-.441406.988282-.988281v-16.867188c0-.546874-.441406-.988281-.988282-.988281zm0 0" fill="url(#h)"/><path d="m6.449219 14.574219c-.550781 0-.992188.445312-.992188.992187v5.460938h12.898438v-5.460938c0-.546875-.441407-.992187-.992188-.992187zm0 0" fill="url(#i)"/><path d="m8.929688 4.160156c-.261719 0-.511719.105469-.699219.289063l-1.984375 1.984375c-.183594.1875-.289063.4375-.289063.699218v3.96875c0 .546876.445313.988282.988281.988282h9.921876c.546874 0 .988281-.441406.988281-.988282v-5.953124c0-.542969-.441407-.988282-.988281-.988282zm0 0" fill="url(#j)"/><path d="m11.90625 4.902344c.136719 0 .25.109375.25.246094v5.953124c0 .136719-.113281.25-.25.25s-.246094-.113281-.246094-.25v-5.953124c0-.136719.109375-.246094.246094-.246094zm0 0" fill="url(#k)"/><path d="m13.148438 4.902344c.136718 0 .246093.109375.246093.246094v5.953124c0 .136719-.109375.25-.246093.25-.136719 0-.25-.113281-.25-.25v-5.953124c0-.136719.113281-.246094.25-.246094zm0 0" fill="url(#l)"/><path d="m14.386719 4.902344c.136719 0 .25.109375.25.246094v5.953124c0 .136719-.113281.25-.25.25s-.246094-.113281-.246094-.25v-5.953124c0-.136719.109375-.246094.246094-.246094zm0 0" fill="url(#m)"/><path d="m15.628906 4.902344c.136719 0 .246094.109375.246094.246094v5.953124c0 .136719-.109375.25-.246094.25-.136718 0-.25-.113281-.25-.25v-5.953124c0-.136719.113282-.246094.25-.246094zm0 0" fill="url(#n)"/><path d="m16.867188 4.902344c.136718 0 .25.109375.25.246094v5.953124c0 .136719-.113282.25-.25.25-.136719 0-.246094-.113281-.246094-.25v-5.953124c0-.136719.109375-.246094.246094-.246094zm0 0" fill="url(#o)"/><path d="m10.667969 4.902344c.136719 0 .246093.109375.246093.246094v5.953124c0 .136719-.109374.25-.246093.25s-.25-.113281-.25-.25v-5.953124c0-.136719.113281-.246094.25-.246094zm0 0" fill="url(#p)"/><path d="m9.425781 4.902344c.136719 0 .25.109375.25.246094v5.953124c0 .136719-.113281.25-.25.25s-.246093-.113281-.246093-.25v-5.953124c0-.136719.109374-.246094.246093-.246094zm0 0" fill="url(#q)"/><path d="m8.1875 5.398438c.136719 0 .246094.109374.246094.246093v5.457031c0 .136719-.109375.25-.246094.25s-.25-.113281-.25-.25v-5.457031c0-.136719.113281-.246093.25-.246093zm0 0" fill="url(#r)"/><path d="m6.945312 6.636719c.136719 0 .25.113281.25.25v4.214843c0 .136719-.113281.25-.25.25-.136718 0-.246093-.113281-.246093-.25v-4.214843c0-.136719.109375-.25.246093-.25zm0 0" fill="url(#s)"/><path d="m190.48181-126.258474c-5.5828 0-10.915624 2.249785-14.915242 6.166077l-42.329292 42.329292c-3.916292 3.999618-6.166077 9.332442-6.166077 14.915242v84.658582c0 11.665553 9.499093 21.08132 21.08132 21.08132h211.646455c11.665553 0 21.08132-9.415767 21.08132-21.08132v-126.987873c0-11.582228-9.415767-21.08132-21.08132-21.08132zm0 0" fill="none" stroke="#212121" stroke-linecap="round" stroke-linejoin="round" stroke-width="3" transform="matrix(.0468795 0 0 .0468795 0 10.079087)"/><path d="m8.929688 2.175781c-.261719 0-.511719.105469-.699219.289063l-3.96875 3.96875c-.183594.1875-.289063.4375-.289063.699218v.242188c0-.261719.105469-.511719.289063-.695312l3.96875-3.96875c.1875-.1875.4375-.289063.699219-.289063h9.921874c.546876 0 .988282.441406.988282.984375v-.242188c0-.546874-.441406-.988281-.988282-.988281zm0 0" fill="#fff" fill-opacity=".313725"/><path d="m3.972656 19.699219v.332031c0 .546875.445313.988281.988282.988281h13.890624c.546876 0 .988282-.441406.988282-.988281v-.332031c0 .542969-.441406.988281-.988282.988281h-13.890624c-.542969 0-.988282-.445312-.988282-.988281zm0 0" fill-opacity=".235294"/><path d="m190.48181-168.587765c-5.5828 0-10.915624 2.249785-14.915242 6.166077l-84.658583 84.658583c-3.916292 3.999618-6.166077 9.332442-6.166077 14.915242v275.140392c0 11.665553 9.499092 21.08132 21.08132 21.08132h296.305037c11.665553 0 21.081321-9.415767 21.081321-21.08132v-359.798974c0-11.665553-9.415768-21.08132-21.081321-21.08132zm0 0" fill="none" stroke="#212121" stroke-linecap="round" stroke-linejoin="round" stroke-width="3" transform="matrix(.0468795 0 0 .0468795 0 10.079087)"/><path d="m6.449219 14.574219c-.550781 0-.992188.445312-.992188.992187v.496094h12.898438v-.496094c0-.546875-.441407-.992187-.992188-.992187zm0 0" fill="url(#t)"/><path d="m519.950354 1175.005918c-44.405209 0-79.992362 35.902083-79.992362 79.992362v440.272922h1039.900707v-440.272922c0-44.090279-35.587153-79.992362-79.992362-79.992362zm0 0" fill="none" stroke="#212121" stroke-linecap="round" stroke-linejoin="round" stroke-width="11.338583" transform="scale(.0124035)"/></svg>

<?xml version="1.0" encoding="UTF-8"?>
<svg xmlns="http://www.w3.org/2000/svg" xmlns:xlink="http://www.w3.org/1999/xlink" width="24pt" height="24pt" viewBox="0 0 24 24" version="1.1">
<defs>
<linearGradient id="linear0" gradientUnits="userSpaceOnUse" x1="254" y1="233.5" x2="254" y2="254.66667" gradientTransform="matrix(0.0468795,0,0,0.0468795,-0.00000187518,10.04029)">
<stop offset="0" style="stop-color:rgb(0%,0%,0%);stop-opacity:0.27451;"/>
<stop offset="1" style="stop-color:rgb(0%,0%,0%);stop-opacity:0;"/>
</linearGradient>
<radialGradient id="radial0" gradientUnits="userSpaceOnUse" cx="450.90894" cy="189.57936" fx="450.90894" fy="189.57936" r="21.166656" gradientTransform="matrix(0.000000130628,-0.0585994,-0.105479,-0.0000000761539,37.857633,47.657703)">
<stop offset="0" style="stop-color:rgb(0%,0%,0%);stop-opacity:0.313725;"/>
<stop offset="0.222222" style="stop-color:rgb(0%,0%,0%);stop-opacity:0.27451;"/>
<stop offset="1" style="stop-color:rgb(0%,0%,0%);stop-opacity:0;"/>
</radialGradient>
<radialGradient id="radial1" gradientUnits="userSpaceOnUse" cx="450.90894" cy="189.57936" fx="450.90894" fy="189.57936" r="21.166656" gradientTransform="matrix(-0.000000130628,0.0585994,0.105479,0.0000000761539,-14.042859,-5.684407)">
<stop offset="0" style="stop-color:rgb(0%,0%,0%);stop-opacity:0.313725;"/>
<stop offset="0.222222" style="stop-color:rgb(0%,0%,0%);stop-opacity:0.27451;"/>
<stop offset="1" style="stop-color:rgb(0%,0%,0%);stop-opacity:0;"/>
</radialGradient>
<radialGradient id="radial2" gradientUnits="userSpaceOnUse" cx="450.90894" cy="189.57936" fx="450.90894" fy="189.57936" r="21.166656" gradientTransform="matrix(-0.000000130628,-0.0585994,0.105479,-0.0000000761539,-14.042859,47.657703)">
<stop offset="0" style="stop-color:rgb(0%,0%,0%);stop-opacity:0.313725;"/>
<stop offset="0.222222" style="stop-color:rgb(0%,0%,0%);stop-opacity:0.27451;"/>
<stop offset="1" style="stop-color:rgb(0%,0%,0%);stop-opacity:0;"/>
</radialGradient>
<radialGradient id="radial3" gradientUnits="userSpaceOnUse" cx="450.90894" cy="189.57936" fx="450.90894" fy="189.57936" r="21.166656" gradientTransform="matrix(0.000000130628,0.0585994,-0.105479,0.0000000761539,37.857631,-5.684407)">
<stop offset="0" style="stop-color:rgb(0%,0%,0%);stop-opacity:0.313725;"/>
<stop offset="0.222222" style="stop-color:rgb(0%,0%,0%);stop-opacity:0.27451;"/>
<stop offset="1" style="stop-color:rgb(0%,0%,0%);stop-opacity:0;"/>
</radialGradient>
<linearGradient id="linear1" gradientUnits="userSpaceOnUse" x1="254" y1="275.83334" x2="254" y2="-211" gradientTransform="matrix(0.0468795,0,0,0.0468795,0,10.079087)">
<stop offset="0" style="stop-color:rgb(25.882353%,25.882353%,25.882353%);stop-opacity:1;"/>
<stop offset="1" style="stop-color:rgb(38.039216%,38.039216%,38.039216%);stop-opacity:1;"/>
</linearGradient>
<linearGradient id="linear2" gradientUnits="userSpaceOnUse" x1="254" y1="233.5" x2="254" y2="95.916664" gradientTransform="matrix(0.0468795,0,0,0.0468795,0,10.079087)">
<stop offset="0" style="stop-color:rgb(74.117647%,74.117647%,74.117647%);stop-opacity:1;"/>
<stop offset="1" style="stop-color:rgb(87.843137%,87.843137%,87.843137%);stop-opacity:1;"/>
</linearGradient>
<linearGradient id="linear3" gradientUnits="userSpaceOnUse" x1="254" y1="233.5" x2="254" y2="-168.66667" gradientTransform="matrix(0.0468795,0,0,0.0468795,0,10.079087)">
<stop offset="0" style="stop-color:rgb(100%,79.215686%,15.686275%);stop-opacity:1;"/>
<stop offset="1" style="stop-color:rgb(100%,83.529412%,30.980392%);stop-opacity:1;"/>
</linearGradient>
<linearGradient id="linear4" gradientUnits="userSpaceOnUse" x1="349.25" y1="43" x2="349.25" y2="-126.33334" gradientTransform="matrix(0.0468795,0,0,0.0468795,-4.46527,10.079087)">
<stop offset="0" style="stop-color:rgb(0%,0%,0%);stop-opacity:0.27451;"/>
<stop offset="1" style="stop-color:rgb(0%,0%,0%);stop-opacity:0;"/>
</linearGradient>
<linearGradient id="linear5" gradientUnits="userSpaceOnUse" x1="349.25" y1="43" x2="349.25" y2="-126.33334" gradientTransform="matrix(0.0468795,0,0,0.0468795,-3.224917,10.079087)">
<stop offset="0" style="stop-color:rgb(0%,0%,0%);stop-opacity:0.27451;"/>
<stop offset="1" style="stop-color:rgb(0%,0%,0%);stop-opacity:0;"/>
</linearGradient>
<linearGradient id="linear6" gradientUnits="userSpaceOnUse" x1="349.25" y1="43" x2="349.25" y2="-126.33334" gradientTransform="matrix(0.0468795,0,0,0.0468795,-1.984564,10.079087)">
<stop offset="0" style="stop-color:rgb(0%,0%,0%);stop-opacity:0.27451;"/>
<stop offset="1" style="stop-color:rgb(0%,0%,0%);stop-opacity:0;"/>
</linearGradient>
<linearGradient id="linear7" gradientUnits="userSpaceOnUse" x1="349.25" y1="43" x2="349.25" y2="-126.33334" gradientTransform="matrix(0.0468795,0,0,0.0468795,-0.744212,10.079087)">
<stop offset="0" style="stop-color:rgb(0%,0%,0%);stop-opacity:0.27451;"/>
<stop offset="1" style="stop-color:rgb(0%,0%,0%);stop-opacity:0;"/>
</linearGradient>
<linearGradient id="linear8" gradientUnits="userSpaceOnUse" x1="349.25" y1="43" x2="349.25" y2="-126.33334" gradientTransform="matrix(0.0468795,0,0,0.0468795,0.496141,10.079087)">
<stop offset="0" style="stop-color:rgb(0%,0%,0%);stop-opacity:0.27451;"/>
<stop offset="1" style="stop-color:rgb(0%,0%,0%);stop-opacity:0;"/>
</linearGradient>
<linearGradient id="linear9" gradientUnits="userSpaceOnUse" x1="349.25" y1="43" x2="349.25" y2="-126.33334" gradientTransform="matrix(0.0468795,0,0,0.0468795,-5.705623,10.079087)">
<stop offset="0" style="stop-color:rgb(0%,0%,0%);stop-opacity:0.27451;"/>
<stop offset="1" style="stop-color:rgb(0%,0%,0%);stop-opacity:0;"/>
</linearGradient>
<linearGradient id="linear10" gradientUnits="userSpaceOnUse" x1="349.25" y1="43" x2="349.25" y2="-126.33334" gradientTransform="matrix(0.0468795,0,0,0.0468795,-6.945976,10.079087)">
<stop offset="0" style="stop-color:rgb(0%,0%,0%);stop-opacity:0.27451;"/>
<stop offset="1" style="stop-color:rgb(0%,0%,0%);stop-opacity:0;"/>
</linearGradient>
<linearGradient id="linear11" gradientUnits="userSpaceOnUse" x1="349.25" y1="43" x2="349.25" y2="-126.33334" gradientTransform="matrix(0.0468795,0,0,0.0468795,-8.186329,10.079087)">
<stop offset="0" style="stop-color:rgb(0%,0%,0%);stop-opacity:0.27451;"/>
<stop offset="1" style="stop-color:rgb(0%,0%,0%);stop-opacity:0;"/>
</linearGradient>
<linearGradient id="linear12" gradientUnits="userSpaceOnUse" x1="349.25" y1="43" x2="349.25" y2="-126.33334" gradientTransform="matrix(0.0468795,0,0,0.0468795,-9.426682,10.079087)">
<stop offset="0" style="stop-color:rgb(0%,0%,0%);stop-opacity:0.27451;"/>
<stop offset="1" style="stop-color:rgb(0%,0%,0%);stop-opacity:0;"/>
</linearGradient>
<linearGradient id="linear13" gradientUnits="userSpaceOnUse" x1="254" y1="233.5" x2="254" y2="95.916664" gradientTransform="matrix(0.0468795,0,0,0.0468795,0.000000156265,10.079087)">
<stop offset="0" style="stop-color:rgb(100%,43.921569%,26.27451%);stop-opacity:1;"/>
<stop offset="1" style="stop-color:rgb(100%,54.117647%,39.607843%);stop-opacity:1;"/>
</linearGradient>
</defs>
<g id="surface1">
<path style=" stroke:none;fill-rule:nonzero;fill:url(#linear0);" d="M 5.707031 21.003906 L 18.109375 21.003906 L 18.109375 22.019531 L 5.707031 22.019531 Z M 5.707031 21.003906 "/>
<path style=" stroke:none;fill-rule:nonzero;fill:url(#radial0);" d="M 18.109375 20.988281 L 20.09375 20.988281 L 20.09375 19.996094 L 18.109375 19.996094 Z M 18.109375 20.988281 "/>
<path style=" stroke:none;fill-rule:nonzero;fill:url(#radial1);" d="M 5.707031 20.988281 L 3.722656 20.988281 L 3.722656 21.980469 L 5.707031 21.980469 Z M 5.707031 20.988281 "/>
<path style=" stroke:none;fill-rule:nonzero;fill:url(#radial2);" d="M 5.707031 20.988281 L 3.722656 20.988281 L 3.722656 19.996094 L 5.707031 19.996094 Z M 5.707031 20.988281 "/>
<path style=" stroke:none;fill-rule:nonzero;fill:url(#radial3);" d="M 18.109375 20.988281 L 20.09375 20.988281 L 20.09375 21.980469 L 18.109375 21.980469 Z M 18.109375 20.988281 "/>
<path style=" stroke:none;fill-rule:nonzero;fill:url(#linear1);" d="M 8.929688 2.175781 C 8.667969 2.175781 8.417969 2.28125 8.230469 2.464844 L 4.261719 6.433594 C 4.078125 6.621094 3.972656 6.871094 3.972656 7.132812 L 3.972656 20.03125 C 3.972656 20.578125 4.417969 21.019531 4.960938 21.019531 L 18.851562 21.019531 C 19.398438 21.019531 19.839844 20.578125 19.839844 20.03125 L 19.839844 3.164062 C 19.839844 2.617188 19.398438 2.175781 18.851562 2.175781 Z M 8.929688 2.175781 "/>
<path style=" stroke:none;fill-rule:nonzero;fill:url(#linear2);" d="M 6.449219 14.574219 C 5.898438 14.574219 5.457031 15.019531 5.457031 15.566406 L 5.457031 21.027344 L 18.355469 21.027344 L 18.355469 15.566406 C 18.355469 15.019531 17.914062 14.574219 17.363281 14.574219 Z M 6.449219 14.574219 "/>
<path style=" stroke:none;fill-rule:nonzero;fill:url(#linear3);" d="M 8.929688 4.160156 C 8.667969 4.160156 8.417969 4.265625 8.230469 4.449219 L 6.246094 6.433594 C 6.0625 6.621094 5.957031 6.871094 5.957031 7.132812 L 5.957031 11.101562 C 5.957031 11.648438 6.402344 12.089844 6.945312 12.089844 L 16.867188 12.089844 C 17.414062 12.089844 17.855469 11.648438 17.855469 11.101562 L 17.855469 5.148438 C 17.855469 4.605469 17.414062 4.160156 16.867188 4.160156 Z M 8.929688 4.160156 "/>
<path style=" stroke:none;fill-rule:nonzero;fill:url(#linear4);" d="M 11.90625 4.902344 C 12.042969 4.902344 12.15625 5.011719 12.15625 5.148438 L 12.15625 11.101562 C 12.15625 11.238281 12.042969 11.351562 11.90625 11.351562 C 11.769531 11.351562 11.660156 11.238281 11.660156 11.101562 L 11.660156 5.148438 C 11.660156 5.011719 11.769531 4.902344 11.90625 4.902344 Z M 11.90625 4.902344 "/>
<path style=" stroke:none;fill-rule:nonzero;fill:url(#linear5);" d="M 13.148438 4.902344 C 13.285156 4.902344 13.394531 5.011719 13.394531 5.148438 L 13.394531 11.101562 C 13.394531 11.238281 13.285156 11.351562 13.148438 11.351562 C 13.011719 11.351562 12.898438 11.238281 12.898438 11.101562 L 12.898438 5.148438 C 12.898438 5.011719 13.011719 4.902344 13.148438 4.902344 Z M 13.148438 4.902344 "/>
<path style=" stroke:none;fill-rule:nonzero;fill:url(#linear6);" d="M 14.386719 4.902344 C 14.523438 4.902344 14.636719 5.011719 14.636719 5.148438 L 14.636719 11.101562 C 14.636719 11.238281 14.523438 11.351562 14.386719 11.351562 C 14.25 11.351562 14.140625 11.238281 14.140625 11.101562 L 14.140625 5.148438 C 14.140625 5.011719 14.25 4.902344 14.386719 4.902344 Z M 14.386719 4.902344 "/>
<path style=" stroke:none;fill-rule:nonzero;fill:url(#linear7);" d="M 15.628906 4.902344 C 15.765625 4.902344 15.875 5.011719 15.875 5.148438 L 15.875 11.101562 C 15.875 11.238281 15.765625 11.351562 15.628906 11.351562 C 15.492188 11.351562 15.378906 11.238281 15.378906 11.101562 L 15.378906 5.148438 C 15.378906 5.011719 15.492188 4.902344 15.628906 4.902344 Z M 15.628906 4.902344 "/>
<path style=" stroke:none;fill-rule:nonzero;fill:url(#linear8);" d="M 16.867188 4.902344 C 17.003906 4.902344 17.117188 5.011719 17.117188 5.148438 L 17.117188 11.101562 C 17.117188 11.238281 17.003906 11.351562 16.867188 11.351562 C 16.730469 11.351562 16.621094 11.238281 16.621094 11.101562 L 16.621094 5.148438 C 16.621094 5.011719 16.730469 4.902344 16.867188 4.902344 Z M 16.867188 4.902344 "/>
<path style=" stroke:none;fill-rule:nonzero;fill:url(#linear9);" d="M 10.667969 4.902344 C 10.804688 4.902344 10.914062 5.011719 10.914062 5.148438 L 10.914062 11.101562 C 10.914062 11.238281 10.804688 11.351562 10.667969 11.351562 C 10.53125 11.351562 10.417969 11.238281 10.417969 11.101562 L 10.417969 5.148438 C 10.417969 5.011719 10.53125 4.902344 10.667969 4.902344 Z M 10.667969 4.902344 "/>
<path style=" stroke:none;fill-rule:nonzero;fill:url(#linear10);" d="M 9.425781 4.902344 C 9.5625 4.902344 9.675781 5.011719 9.675781 5.148438 L 9.675781 11.101562 C 9.675781 11.238281 9.5625 11.351562 9.425781 11.351562 C 9.289062 11.351562 9.179688 11.238281 9.179688 11.101562 L 9.179688 5.148438 C 9.179688 5.011719 9.289062 4.902344 9.425781 4.902344 Z M 9.425781 4.902344 "/>
<path style=" stroke:none;fill-rule:nonzero;fill:url(#linear11);" d="M 8.1875 5.398438 C 8.324219 5.398438 8.433594 5.507812 8.433594 5.644531 L 8.433594 11.101562 C 8.433594 11.238281 8.324219 11.351562 8.1875 11.351562 C 8.050781 11.351562 7.9375 11.238281 7.9375 11.101562 L 7.9375 5.644531 C 7.9375 5.507812 8.050781 5.398438 8.1875 5.398438 Z M 8.1875 5.398438 "/>
<path style=" stroke:none;fill-rule:nonzero;fill:url(#linear12);" d="M 6.945312 6.636719 C 7.082031 6.636719 7.195312 6.75 7.195312 6.886719 L 7.195312 11.101562 C 7.195312 11.238281 7.082031 11.351562 6.945312 11.351562 C 6.808594 11.351562 6.699219 11.238281 6.699219 11.101562 L 6.699219 6.886719 C 6.699219 6.75 6.808594 6.636719 6.945312 6.636719 Z M 6.945312 6.636719 "/>
<path style="fill:none;stroke-width:3;stroke-linecap:round;stroke-linejoin:round;stroke:rgb(12.941176%,12.941176%,12.941176%);stroke-opacity:1;stroke-miterlimit:4;" d="M 190.48181 -126.258474 C 184.89901 -126.258474 179.566186 -124.008689 175.566568 -120.092397 L 133.237276 -77.763105 C 129.320984 -73.763487 127.071199 -68.430663 127.071199 -62.847863 L 127.071199 21.810719 C 127.071199 33.476272 136.570292 42.892039 148.152519 42.892039 L 359.798974 42.892039 C 371.464527 42.892039 380.880294 33.476272 380.880294 21.810719 L 380.880294 -105.177154 C 380.880294 -116.759382 371.464527 -126.258474 359.798974 -126.258474 Z M 190.48181 -126.258474 " transform="matrix(0.0468795,0,0,0.0468795,0,10.079087)"/>
<path style=" stroke:none;fill-rule:nonzero;fill:rgb(100%,100%,100%);fill-opacity:0.313725;" d="M 8.929688 2.175781 C 8.667969 2.175781 8.417969 2.28125 8.230469 2.464844 L 4.261719 6.433594 C 4.078125 6.621094 3.972656 6.871094 3.972656 7.132812 L 3.972656 7.375 C 3.972656 7.113281 4.078125 6.863281 4.261719 6.679688 L 8.230469 2.710938 C 8.417969 2.523438 8.667969 2.421875 8.929688 2.421875 L 18.851562 2.421875 C 19.398438 2.421875 19.839844 2.863281 19.839844 3.40625 L 19.839844 3.164062 C 19.839844 2.617188 19.398438 2.175781 18.851562 2.175781 Z M 8.929688 2.175781 "/>
<path style=" stroke:none;fill-rule:nonzero;fill:rgb(0%,0%,0%);fill-opacity:0.235294;" d="M 3.972656 19.699219 L 3.972656 20.03125 C 3.972656 20.578125 4.417969 21.019531 4.960938 21.019531 L 18.851562 21.019531 C 19.398438 21.019531 19.839844 20.578125 19.839844 20.03125 L 19.839844 19.699219 C 19.839844 20.242188 19.398438 20.6875 18.851562 20.6875 L 4.960938 20.6875 C 4.417969 20.6875 3.972656 20.242188 3.972656 19.699219 Z M 3.972656 19.699219 "/>
<path style="fill:none;stroke-width:3;stroke-linecap:round;stroke-linejoin:round;stroke:rgb(12.941176%,12.941176%,12.941176%);stroke-opacity:1;stroke-miterlimit:4;" d="M 190.48181 -168.587765 C 184.89901 -168.587765 179.566186 -166.33798 175.566568 -162.421688 L 90.907985 -77.763105 C 86.991693 -73.763487 84.741908 -68.430663 84.741908 -62.847863 L 84.741908 212.292529 C 84.741908 223.958082 94.241 233.373849 105.823228 233.373849 L 402.128265 233.373849 C 413.793818 233.373849 423.209586 223.958082 423.209586 212.292529 L 423.209586 -147.506445 C 423.209586 -159.171998 413.793818 -168.587765 402.128265 -168.587765 Z M 190.48181 -168.587765 " transform="matrix(0.0468795,0,0,0.0468795,0,10.079087)"/>
<path style=" stroke:none;fill-rule:nonzero;fill:url(#linear13);" d="M 6.449219 14.574219 C 5.898438 14.574219 5.457031 15.019531 5.457031 15.566406 L 5.457031 16.0625 L 18.355469 16.0625 L 18.355469 15.566406 C 18.355469 15.019531 17.914062 14.574219 17.363281 14.574219 Z M 6.449219 14.574219 "/>
<path style="fill:none;stroke-width:11.338583;stroke-linecap:round;stroke-linejoin:round;stroke:rgb(12.941176%,12.941176%,12.941176%);stroke-opacity:1;stroke-miterlimit:4;" d="M 519.950354 1175.005918 C 475.545145 1175.005918 439.957992 1210.908001 439.957992 1254.99828 L 439.957992 1695.271202 L 1479.858699 1695.271202 L 1479.858699 1254.99828 C 1479.858699 1210.908001 1444.271546 1175.005918 1399.866337 1175.005918 Z M 519.950354 1175.005918 " transform="matrix(0.0124035,0,0,0.0124035,0,0)"/>
</g>
</svg>
